src/public/favicon.svg

<svg xmlns="http://www.w3.org/2000/svg" version="1.1" xmlns:xlink="http://www.w3.org/1999/xlink" xmlns:svgjs="http://svgjs.com/svgjs" width="32" height="32"><svg width="32" height="32" viewBox="0 0 32 32" fill="none" xmlns="http://www.w3.org/2000/svg">
<circle cx="16" cy="16" r="16" fill="#6D8434"></circle>
<path d="M16.93 8.88995C16.6405 8.45006 16.2514 8.08462 15.7942 7.82328C14.5375 7.10245 12.9184 7.22912 11.4242 8.06578C8.65004 9.61995 6.83337 12.5416 6.83337 15.9999C6.83337 20.6166 10.175 24.3441 14.5392 25.0499C15.0159 25.1266 15.5034 25.1666 16 25.1666C17.211 25.1709 18.4107 24.9343 19.5294 24.4708C20.6482 24.0072 21.6635 23.3258 22.5165 22.4662C23.3695 21.6066 24.0431 20.586 24.498 19.4638C24.953 18.3415 25.1803 17.14 25.1667 15.9291C25.1475 14.3191 24.5017 12.3433 23.4809 10.7641C22.4642 9.19078 20.9009 7.75745 18.9584 7.77578C18.01 7.77745 17.3625 8.29912 16.93 8.89078V8.88995ZM22.4759 12.3441C22.1278 12.2881 21.7739 12.2789 21.4234 12.3166L20.4567 10.6916L19.025 11.5416L19.7684 12.7916C19.4574 12.938 19.1603 13.1123 18.8809 13.3124C18.876 13.2963 18.871 13.2802 18.8659 13.2641C18.6434 12.5891 18.2134 12.0349 17.64 11.4841L17.6434 11.4674C17.7009 11.1983 17.7925 10.8508 17.93 10.5133C18.2409 9.74995 18.6017 9.44078 18.9634 9.44078H18.9725C20.0484 9.42912 21.1692 10.2549 22.0817 11.6666C22.2234 11.8858 22.355 12.1116 22.4767 12.3433L22.4759 12.3441ZM17.3417 14.8416C17.0667 14.8483 16.7842 14.8791 16.5084 14.9391C16.2834 14.5626 15.9819 14.2375 15.6234 13.9849C14.965 13.5224 14.0634 13.2933 13.0884 13.6574C12.999 13.606 12.909 13.5557 12.8184 13.5066L15.5125 10.8658L14.3459 9.67578L11.15 12.8083C10.475 12.6124 9.84421 12.5424 9.27754 12.6208C9.92966 11.3118 10.9623 10.2306 12.24 9.51912C13.3767 8.88245 14.3542 8.91745 14.9659 9.26828C15.5492 9.60245 16.0334 10.3608 15.9117 11.7158L15.8742 12.1349L16.1892 12.4141C16.8742 13.0199 17.1592 13.4116 17.2825 13.7858C17.3692 14.0483 17.3975 14.3658 17.3417 14.8416ZM15 15.6791C14.2884 16.2749 13.8109 17.1108 13.5334 18.0141L11.055 15.2933L9.82254 16.4166L13.2292 20.1566C13.225 21.1499 13.3525 22.1666 13.5375 23.0858C12.0626 22.5794 10.7835 21.6235 9.87988 20.3525C8.97631 19.0816 8.49375 17.5594 8.50004 15.9999C8.50004 15.1333 8.74087 14.6608 9.02421 14.4541C9.29171 14.2574 9.87921 14.0966 11.0825 14.5408C11.5175 14.7016 12.0209 14.9483 12.5967 15.3066L13.015 15.5666L13.445 15.3249C13.9642 15.0333 14.3609 15.1366 14.665 15.3499C14.7984 15.4433 14.9125 15.5599 15 15.6791ZM16.4709 23.4849L22.5475 16.7874L21.3134 15.6674L18.87 18.3599L18.8759 17.5149L17.2092 17.5033L17.19 20.2116L15.1209 22.4924C14.9642 21.6416 14.8709 20.7274 14.9009 19.8699C14.9542 18.4074 15.5384 17.2058 16.4025 16.7299C16.7609 16.5324 17.3934 16.4549 17.8934 16.5433L18.635 16.6724L18.8392 15.9483C18.9459 15.5708 19.2284 15.1666 19.67 14.8066C20.1182 14.4444 20.6396 14.184 21.1984 14.0433C21.8659 13.8799 22.435 13.9649 22.81 14.2233C23.1375 14.4483 23.4667 14.9083 23.4975 15.8516V15.8666L23.5 15.9999C23.5084 17.91 22.7843 19.7506 21.4768 21.1429C20.1692 22.5353 18.3777 23.3734 16.4709 23.4849Z" fill="#E8E8E2"></path>
</svg><style>@media (prefers-color-scheme: light) { :root { filter: none; } }
</style></svg>

<svg width="32" height="32" fill="none" xmlns="http://www.w3.org/2000/svg"><circle cx="16" cy="16" r="16" fill="#6D8434"/><path d="M16.93 8.89a3.35 3.35 0 0 0-1.136-1.067c-1.257-.72-2.876-.594-4.37.243C8.65 9.62 6.834 12.542 6.834 16c0 4.617 3.341 8.344 7.705 9.05.477.077.964.117 1.461.117a9.136 9.136 0 0 0 9.167-9.238c-.02-1.61-.665-3.586-1.686-5.165-1.017-1.573-2.58-3.007-4.523-2.988-.948.001-1.595.523-2.028 1.115V8.89Zm5.546 3.454a3.96 3.96 0 0 0-1.053-.027l-.966-1.625-1.432.85.743 1.25c-.31.146-.608.32-.887.52a4.464 4.464 0 0 0-.015-.048c-.223-.675-.653-1.23-1.226-1.78l.003-.017c.058-.269.15-.616.287-.954.31-.763.672-1.072 1.033-1.072h.01c1.075-.012 2.196.814 3.109 2.226.141.219.273.445.395.676l-.001.001Zm-5.134 2.498a4.45 4.45 0 0 0-.834.097 3.134 3.134 0 0 0-.885-.954 2.684 2.684 0 0 0-2.535-.328c-.089-.051-.179-.101-.27-.15l2.694-2.641-1.166-1.19-3.196 3.132c-.675-.196-1.306-.266-1.872-.187a7.25 7.25 0 0 1 2.962-3.102c1.137-.637 2.114-.602 2.726-.25.583.333 1.067 1.092.946 2.447l-.038.419.315.28c.685.605.97.997 1.093 1.37.087.263.116.58.06 1.057ZM15 15.679c-.712.596-1.19 1.432-1.467 2.335l-2.478-2.72-1.232 1.123 3.406 3.74c-.004.993.123 2.01.309 2.929A7.46 7.46 0 0 1 8.5 16c0-.867.24-1.34.524-1.546.268-.197.855-.357 2.059.087.434.16.938.407 1.514.766l.418.26.43-.242c.52-.292.916-.188 1.22.025.133.093.248.21.335.33Zm1.47 7.806 6.078-6.698-1.235-1.12-2.443 2.693.006-.845-1.667-.012-.019 2.709-2.07 2.28c-.156-.85-.25-1.765-.22-2.622.054-1.463.638-2.664 1.502-3.14.359-.198.991-.275 1.491-.187l.742.13.204-.725c.107-.377.39-.781.831-1.141.448-.363.97-.623 1.528-.764.668-.163 1.237-.078 1.612.18.328.225.657.685.688 1.629v.015L23.5 16a7.465 7.465 0 0 1-7.03 7.485Z" fill="#E8E8E2"/></svg>
